X:234
T: Heigho My Jockey
N: O'Farrell's Pocket Companion v.3 (Sky ed. p.113)
N: "Irish"
M: 3/4
L: 1/8
R: waltz
Q: 120
K: Em
G>A GG Bd| eA AG AB| GG GG Bd| cB/A/ BB E2 :|
e>f g/f/e/d/ eB| e/g/f/a/ g/f/e/d/ e>f|
gf ed eB| cB/A/ GB E2 :|
